X: 37
T: Joye me fuit
N: Derived from Bus3032-Joye_me_fuit.krn
C: Antoine Busnoys
%%abc-version 2.0
%%abcx-abcm2ps-target-version 5.9.1 (29 Sep 2008)
%%abc-creator hum2abc beta
%%abcx-conversion-date 2019/02/16 20:26:07
%%abc-edited-by Jesse Rodin
%%abc-edited-by Chris Gage 02-12-2015
%%abcx-initial-encoding-date 2015/02/20/
%%humdrum-veritas 869809103
%%humdrum-veritas-data 654096032
%%linebreak <none>
%%barnumbers 0
L: 1/4
M: 2/1
Q: 1/2=120
V: 1 clef=treble-8
V: 2 clef=treble-8
V: 3 clef=bass
K: F
[V:1] z8 | 
[V:2] z8 | 
[V:3] z4D,4 | 
[V:1] z8 | 
[V:2] z8 | 
[V:3] E,4F,4 | 
[V:1] z4d4 | 
[V:2] z8 | 
[V:3] G,8 | 
[V:1] e4f4 | 
[V:2] z8 | 
[V:3] G,4A,4 | 
[V:1] g6f2 | 
[V:2] z8 | 
[V:3] B,4G,4- | 
[V:1] e2d2d4- | 
[V:2] z8 | 
[V:3] G,4F,4 | 
[V:1] d4^c4 | 
[V:2] z8 | 
[V:3] E,8 | 
[V:1] d4d4 | 
[V:2] z8 | 
[V:3] D,8- | 
[V:1] d4d4 | 
[V:2] z4D4 | 
[V:3] D,4B,,4 | 
[V:1] c6BA | 
[V:2] E4F4 | 
[V:3] A,,8 | 
[V:1] B3cB2AG | 
[V:2] G4G4 | 
[V:3] G,,6F,,E,, | 
[V:1] ^F2E2^F4 | 
[V:2] A4A4 | 
[V:3] D,,8 | 
[V:1] G8 | 
[V:2] B8 | 
[V:3] z4E,,4 | 
[V:1] z8 | 
[V:2] A4G4- | 
[V:3] F,,4G,,2B,,2- | 
[V:1] G4A4 | 
[V:2] G2E2^F4 | 
[V:3] B,,2C,2A,,4 | 
[V:1] B4G4 | 
[V:2] G4z4 | 
[V:3] G,,8- | 
[V:1] d4e4 | 
[V:2] z4G4 | 
[V:3] G,,8 | 
[V:1] f4g4- | 
[V:2] A4B4 | 
[V:3] z8 | 
[V:1] g2a2b4- | 
[V:2] G4d4 | 
[V:3] G,,8- | 
[V:1] b2a2a4- | 
[V:2] e4f4 | 
[V:3] G,,4D,4- | 
[V:1] a2f2f4- | 
[V:2] d6cB | 
[V:3] D,8 | 
[V:1] f4g4 | 
[V:2] A4G4 | 
[V:3] F,4E,4 | 
[V:1] a4b4- | 
[V:2] F4G4 | 
[V:3] D,4B,,4 | 
[V:1] b2g2g4- | 
[V:2] B8 | 
[V:3] G,,8 | 
[V:1] g2^f2^f2e2 | 
[V:2] A8 | 
[V:3] z4D,4 | 
[V:1] g8 | 
[V:2] G8- | 
[V:3] _E,6D,C, | 
[V:1] z4g4 | 
[V:2] G8 | 
[V:3] B,,2C,3D,_E,2- | 
[V:1] g4a4 | 
[V:2] z4F4 | 
[V:3] E,D,C,B,,A,,4 | 
[V:1] b4b4 | 
[V:2] G6G2 | 
[V:3] G,,8 | 
[V:1] b4a4 | 
[V:2] G4D4 | 
[V:3] z8 | 
[V:1] g6f2 | 
[V:2] E6F2 | 
[V:3] C,6A,,2 | 
[V:1] e3dd4- | 
[V:2] G4G4 | 
[V:3] G,,6B,,2- | 
[V:1] d2B2c2BA | 
[V:2] G4A4 | 
[V:3] B,,2A,,G,,F,,4 | 
[V:1] G2B2A4 | 
[V:2] B2d4c2 | 
[V:3] z2G,,2A,,2F,,2 | 
[V:1] G2d4cd | 
[V:2] B2G2A4 | 
[V:3] z2G,,2^F,,3E,, | 
[V:1] _e2d4cB | 
[V:2] G2G4E2 | 
[V:3] G,,3A,,B,,2C,2 | 
[V:1]  [K:Bb] A8 | 
[V:2]  [K:Bb] ^F8 | 
[V:3]  [K:Bb] D,8 | 
[V:1] B6AG | 
[V:2] z8 | 
[V:3] D,6E,2 | 
[V:1] A2B2c2d2- | 
[V:2] z8 | 
[V:3] F,2G,2A,2B,2- | 
[V:1] dGB2A4 | 
[V:2] z8 | 
[V:3] B,2A,G,^F,3=E, | 
[V:1] G8 | 
[V:2] z4d4 | 
[V:3] G,6D,2 | 
[V:1] z8 | 
[V:2] B2c4A2 | 
[V:3] E,4F,4 | 
[V:1] z8 | 
[V:2] G4B4 | 
[V:3] G,4G,,4 | 
[V:1] z8 | 
[V:2] c4d4- | 
[V:3] A,,4B,,4 | 
[V:1] G4B4 | 
[V:2] d4G4 | 
[V:3] G,,8 | 
[V:1] c4d4- | 
[V:2] A4B4 | 
[V:3] z8 | 
[V:1] d4G4 | 
[V:2] G8 | 
[V:3] G,,4B,,4 | 
[V:1] A4B4 | 
[V:2] z4d4- | 
[V:3] A,,4G,,4- | 
[V:1] G8 | 
[V:2] d2c2B2AG | 
[V:3] G,,4B,,4 | 
[V:1] F4G4- | 
[V:2] A4G2B2- | 
[V:3] F,,4E,,4 | 
[V:1] G2A2B3c | 
[V:2] B2A2G2F=E | 
[V:3] G,,8 | 
[V:1] A2G2A4 | 
[V:2] F2G4^F2 | 
[V:3] D,,8 | 
[V:1] G8 | 
[V:2] G2d4cd | 
[V:3] G,,4B,,4 | 
[V:1] z4f4 | 
[V:2] edcBA4 | 
[V:3] C,4D,4 | 
[V:1] g4a4 | 
[V:2] z4d4 | 
[V:3] E,4F,4 | 
[V:1] b4b4 | 
[V:2] d4=e4 | 
[V:3] G,8 | 
[V:1] a6gf | 
[V:2] f6=ed | 
[V:3] D,8 | 
[V:1] =e4d4 | 
[V:2] c4d2B2- | 
[V:3] A,,4B,,4 | 
[V:1] z4c4 | 
[V:2] B2G2A4 | 
[V:3] G,,4F,,4 | 
[V:1] d2B4G2 | 
[V:2] G4z4 | 
[V:3] z2G,,2E,,2G,,2- | 
[V:1] A4G4 | 
[V:2] c4B4- | 
[V:3] G,,2F,,2G,,2B,,2- | 
[V:1] d6=e2 | 
[V:2] B2A2B2AG | 
[V:3] B,,A,,F,,2G,,3F,, | 
[V:1]  [K:F] f4d4- | 
[V:2]  [K:F] A2B3cd2- | 
[V:3]  [K:F] D,,8 | 
[V:1] d2_e2d2cB | 
[V:2] d2c2B2AG | 
[V:3] G,,8 | 
[V:1] A4B2A2- | 
[V:2] F4G2A2- | 
[V:3] D,8 | 
[V:1] A2d4^c2 | 
[V:2] AGF2E4 | 
[V:3] A,,8 | 
[V:1] d8 |]  
[V:2] D8 |]  
[V:3] D,,8 |]  



